static/icons/cup.svg

<svg xmlns="http://www.w3.org/2000/svg" viewBox="0 0 24 24" width="24" height="24"><path d="M16 13V5H6V13C6 14.1046 6.89543 15 8 15H14C15.1046 15 16 14.1046 16 13ZM5 3H20C21.1046 3 22 3.89543 22 5V8C22 9.10457 21.1046 10 20 10H18V13C18 15.2091 16.2091 17 14 17H8C5.79086 17 4 15.2091 4 13V4C4 3.44772 4.44772 3 5 3ZM18 5V8H20V5H18ZM2 19H20V21H2V19Z" fill="currentColor"></path></svg>

<svg xmlns="http://www.w3.org/2000/svg" width="24" height="24"><path fill="currentColor" d="M16 13V5H6v8a2 2 0 0 0 2 2h6a2 2 0 0 0 2-2M5 3h15a2 2 0 0 1 2 2v3a2 2 0 0 1-2 2h-2v3a4 4 0 0 1-4 4H8a4 4 0 0 1-4-4V4a1 1 0 0 1 1-1m13 2v3h2V5zM2 19h18v2H2z"/></svg>
